svg/u1f487_200d_2642.svg

<svg viewBox="0 0 128 128" xmlns="http://www.w3.org/2000/svg">
  <g>
    <path d="M76.73,61.47l25.63-27.61l-2.57-7.37c-3.23,1.64-10.25,5.18-11.3,5.66 c-0.28,0.13-0.51,0.34-0.67,0.6c0,0-9.88,17.94-11.49,20.85c-1.74,3.16-1.95,4.51-1.76,5.55C74.74,60.07,76.73,61.47,76.73,61.47 z" fill="#82AEC0"/>
    <path d="M117.49,13.97c-4.24-2.68-10.15-0.91-13.22,3.94c-1.22,1.94-1.57,4.33-1.69,5.22 c-0.16,1.24-2.31,2.77-2.99,3.22c-0.12,0.08-0.16,0.23-0.11,0.36l2.81,6.97c0.07,0.18,0.29,0.24,0.45,0.13l0.84-0.6 c2.27-1.3,4.15-0.94,4.88-0.73c3.93,1.12,8.55-0.77,11.14-4.87C122.68,22.74,121.72,16.64,117.49,13.97z M108.61,28.02 c-2.54-1.6-3.11-5.26-1.27-8.17c1.84-2.91,5.39-3.97,7.93-2.36c2.54,1.6,3.11,5.26,1.27,8.17 C114.71,28.57,111.16,29.62,108.61,28.02z" fill="#DE3E31"/>
    <circle cx="92.52" cy="36.22" r="2.03" fill="#B9E4EA"/>
    <circle cx="92.52" cy="36.22" r="2.03" fill="#B9E4EA"/>
  </g>
  <polygon points="94.4,29.29 95.27,28.77 99.24,33.29 99.47,36.97 96.73,40.03 " fill="#2F7889"/>
  <polygon points="86.69,34.81 85.29,37.34 86.27,43.7 88.21,46.08 " fill="#2F7889"/>
  <linearGradient id="shirt_2_" gradientTransform="matrix(1 0 0 -1 0 130)" gradientUnits="userSpaceOnUse" x1="51.567" x2="51.567" y1="34.482" y2="3.7841">
    <stop offset="0" stop-color="#00BFA5"/>
    <stop offset="0.4701" stop-color="#00B29A"/>
    <stop offset="1" stop-color="#009E89"/>
  </linearGradient>
  <path id="shirt_1_" d="M47.27,96c-0.04,0-0.09,0-0.13,0c-16.4,0.02-33.22,3.04-43.13,9.92v1.94v1.84 V124h92.13h1.5h1.5v-2.94C99.13,104.3,72.87,96,47.27,96z" fill="url(#shirt_2_)"/>
  <path id="ears" d="M74.58,50.43H19.92c-5.89,0-10.71,5.14-10.71,11.41s4.82,11.41,10.71,11.41h54.65 c5.89,0,10.71-5.14,10.71-11.41S80.47,50.43,74.58,50.43z" fill="#E59600"/>
  <path id="neck" d="M38.05,90.08v9.98c0,4.51,3.72,8.17,9.08,8.17s9.08-3.66,9.08-8.17v-9.98L38.05,90.08z" fill="#E59600"/>
  <path id="head_1_" d="M47.25,11.07L47.25,11.07L47.25,11.07c-17.4,0-33.52,18.61-33.52,45.4 c0,26.64,16.61,39.81,33.52,39.81S80.77,83.1,80.77,56.46C80.77,29.68,64.65,11.07,47.25,11.07z" fill="#FFCA28"/>
  <path id="mouth_1_" d="M55.67,76.14c-3.19,1.89-13.63,1.89-16.81,0c-1.83-1.09-3.7,0.58-2.94,2.24 c0.75,1.63,6.44,5.42,11.37,5.42s10.55-3.79,11.3-5.42C59.34,76.72,57.5,75.05,55.67,76.14z" fill="#795548"/>
  <path id="nose_1_" d="M51.11,68.06c-0.11-0.04-0.21-0.07-0.32-0.08h-7.08c-0.11,0.01-0.22,0.04-0.32,0.08 c-0.64,0.26-0.99,0.92-0.69,1.63c0.3,0.71,1.71,2.69,4.55,2.69s4.25-1.99,4.55-2.69C52.1,68.98,51.75,68.32,51.11,68.06z" fill="#E59600"/>
  <g id="eyes_1_">
    <ellipse cx="30.81" cy="58.81" rx="4.93" ry="5.1" fill="#404040"/>
    <ellipse cx="63.69" cy="58.81" rx="4.93" ry="5.1" fill="#404040"/>
  </g>
  <g id="eyebrows_1_">
    <path d="M23.09,50.73c3.18-4.51,10.66-4.66,14.41-0.82c0.65,0.67,1.34,1.53,0.85,2.5 c-0.54,1.07-1.65,0.9-2.56,0.53c-2.43-0.98-4.93-1.42-7.55-0.89c-1.13,0.23-2.1,0.7-3.17,1.08C23.63,53.62,22.16,52.12,23.09,50.73 z" fill="#6D4C41"/>
    <path d="M69.51,53.13c-2.23-0.97-4.49-1.53-6.95-1.25c-1.12,0.13-2.22,0.42-3.26,0.83 c-0.83,0.33-1.72,0.86-2.58,0.28c-2.45-1.69,1.9-4.44,3.17-4.99c2.76-1.19,6.05-1.08,8.72,0.31c1.06,0.55,2.21,1.35,2.84,2.4 C72.24,52.02,71.06,53.76,69.51,53.13z" fill="#6D4C41"/>
  </g>
  <g id="hairGroup_1_">
    <path id="hair" d="M85.6,42.42c-1.24-1.58-1.4-2.98-1.49-3.17C82.75,24.09,75.59,4.18,47.48,4.03l0,0 c-0.01,0-0.01,0-0.02,0s-0.01,0-0.02,0l0,0C2.01,4.27,11.32,56.17,11.32,56.17s5.1,8.99,5.1,8.81c-0.17-7.25,2.74-20.09,4.8-25.55 c1.04-2.76,3.9-4.36,6.8-3.83c4.45,0.81,11.55,1.81,19.37,1.81c0.03,0,0.06,0,0.08,0s0.06,0,0.08,0c7.83,0,14.92-1,19.37-1.81 c2.9-0.53,5.76,1.08,6.79,3.83c2.06,5.47,4.96,18.3,4.8,25.55c0,0.16,3.96-6.81,4.9-8.45l0.06,0.04c0,0,5.33,1.1,11.95-1.79 c6.71-2.93,8.38-8.19,8.38-8.19C90.04,48.59,86.26,43.26,85.6,42.42z" fill="#543930"/>
    <radialGradient id="hairHighlights_2_" cx="46.8335" cy="86.426" gradientTransform="matrix(1 0 0 -1.0449 0 133.8779)" gradientUnits="userSpaceOnUse" r="37.3477">
      <stop offset="0.8156" stop-color="#6D4C41" stop-opacity="0"/>
      <stop offset="1" stop-color="#6D4C41"/>
    </radialGradient>
    <path id="hairHighlights_1_" d="M85.6,42.42c-1.24-1.58-1.4-2.98-1.49-3.17 C82.75,24.09,75.59,4.18,47.48,4.03l0,0c-0.01,0-0.01,0-0.02,0s-0.01,0-0.02,0l0,0C2.01,4.27,11.32,56.17,11.32,56.17 s5.1,8.99,5.1,8.81c-0.17-7.25,2.74-20.09,4.8-25.55c1.04-2.76,3.9-4.36,6.8-3.83c4.45,0.81,11.55,1.81,19.37,1.81 c0.03,0,0.06,0,0.08,0s0.06,0,0.08,0c7.83,0,14.92-1,19.37-1.81c2.9-0.53,5.76,1.08,6.79,3.83c2.06,5.47,4.96,18.3,4.8,25.55 c0,0.16,3.96-6.81,4.9-8.45l0.06,0.04c0,0,4.51,1.19,11.95-1.79c6.38-2.56,8.38-8.19,8.38-8.19C90.46,48.63,86.26,43.26,85.6,42.42 z" fill="url(#hairHighlights_2_)"/>
  </g>
  <g>
    <path d="M90.88,67.95l-5.03-39.34l6.28-4.67c1.66,3.14,5.45,10.25,6.04,11.27 c0.16,0.27,0.22,0.57,0.2,0.88c0,0-2.27,22.36-2.63,25.66c-0.4,3.59-1,4.81-1.76,5.55C93.31,67.94,90.88,67.95,90.88,67.95z" fill="#82AEC0"/>
    <circle cx="92.53" cy="36.2" r="2.03" fill="#B9E4EA"/>
    <path d="M75.37,13.55c-0.25,4.84,2.44,9.05,6.3,10.4c0.71,0.25,2.46,1.04,3.56,3.41l0.34,0.98 c0.06,0.18,0.28,0.26,0.44,0.15l6.31-4.07c0.12-0.08,0.17-0.22,0.12-0.36c-0.29-0.76-1.17-3.25-0.58-4.35 c0.42-0.8,1.52-2.95,1.63-5.24c0.29-5.73-3.53-10.58-8.53-10.84S75.66,7.82,75.37,13.55z M78.99,13.73 c0.18-3.44,2.75-6.1,5.75-5.95c3,0.15,5.29,3.06,5.12,6.5c-0.18,3.44-2.75,6.1-5.75,5.95C81.11,20.08,78.82,17.17,78.99,13.73z" fill="#DE3E31"/>
  </g>
</svg>

<svg viewBox="0 0 128 128" xmlns="http://www.w3.org/2000/svg">
  <defs>
    <linearGradient id="shirt_2_" gradientTransform="matrix(1 0 0 -1 0 0)" gradientUnits="userSpaceOnUse" x1="51.567" x2="51.567" y1="-95.518" y2="-126.2159">
      <stop offset="0" stop-color="#00BFA5"/>
      <stop offset="0.4701" stop-color="#00B29A"/>
      <stop offset="1" stop-color="#009E89"/>
    </linearGradient>
    <radialGradient id="hairHighlights_2_" cx="46.8335" cy="-41.699084" gradientTransform="matrix(1 0 0 -1.0449 0 0)" gradientUnits="userSpaceOnUse" r="37.3477">
      <stop offset="0.8156" stop-color="#6D4C41" stop-opacity="0"/>
      <stop offset="1" stop-color="#6D4C41"/>
    </radialGradient>
  </defs>
  <path d="M76.73,61.47 L102.36,33.86 L99.79,26.49 C96.56,28.13 89.54,31.67 88.49,32.15 C88.21,32.28 87.98,32.49 87.82,32.75 C87.82,32.75 77.94,50.69 76.33,53.6 C74.59,56.76 74.38,58.11 74.57,59.15 C74.74,60.07 76.73,61.47 76.73,61.47 Z" fill="#82AEC0"/>
  <path d="M117.49,13.97 C113.25,11.29 107.34,13.06 104.27,17.91 C103.05,19.85 102.7,22.24 102.58,23.13 C102.42,24.37 100.27,25.9 99.59,26.35 C99.47,26.43 99.43,26.58 99.48,26.71 L102.29,33.68 C102.36,33.86 102.58,33.92 102.74,33.81 L103.58,33.21 C105.85,31.91 107.73,32.27 108.46,32.48 C112.39,33.6 117.01,31.71 119.6,27.61 C122.68,22.74 121.72,16.64 117.49,13.97 Z M108.61,28.02 C106.07,26.42 105.5,22.76 107.34,19.85 C109.18,16.94 112.73,15.88 115.27,17.49 C117.81,19.09 118.38,22.75 116.54,25.66 C114.71,28.57 111.16,29.62 108.61,28.02 Z" fill="#DE3E31"/>
  <path d="M94.55,36.22 A2.03 2.03 0 1 1 90.49,36.22 A2.03 2.03 0 1 1 94.55,36.22 Z" fill="#B9E4EA"/>
  <path d="M94.55,36.22 A2.03 2.03 0 1 1 90.49,36.22 A2.03 2.03 0 1 1 94.55,36.22 Z" fill="#B9E4EA"/>
  <path d="M94.4,29.29 L95.27,28.77 L99.24,33.29 L99.47,36.97 L96.73,40.03 Z" fill="#2F7889"/>
  <path d="M86.69,34.81 L85.29,37.34 L86.27,43.7 L88.21,46.08 Z" fill="#2F7889"/>
  <path id="shirt_1_" d="M47.27,96 C47.23,96 47.18,96 47.14,96 C30.74,96.02 13.92,99.04 4.01,105.92 L4.01,107.86 L4.01,109.7 L4.01,124 L96.14,124 L97.64,124 L99.14,124 L99.14,121.06 C99.13,104.3 72.87,96 47.27,96 Z" fill="url(#shirt_2_)"/>
  <path id="ears" d="M74.58,50.43 L19.92,50.43 C14.03,50.43 9.21,55.57 9.21,61.84 C9.21,68.11 14.03,73.25 19.92,73.25 L74.57,73.25 C80.46,73.25 85.28,68.11 85.28,61.84 C85.28,55.57 80.47,50.43 74.58,50.43 Z" fill="#E59600"/>
  <path id="neck" d="M38.05,90.08 L38.05,100.06 C38.05,104.57 41.77,108.23 47.13,108.23 C52.49,108.23 56.21,104.57 56.21,100.06 L56.21,90.08 L38.05,90.08 Z" fill="#E59600"/>
  <path id="head_1_" d="M47.25,11.07 L47.25,11.07 L47.25,11.07 C29.85,11.07 13.73,29.68 13.73,56.47 C13.73,83.11 30.34,96.28 47.25,96.28 C64.16,96.28 80.77,83.1 80.77,56.46 C80.77,29.68 64.65,11.07 47.25,11.07 Z" fill="#FFCA28"/>
  <path id="mouth_1_" d="M55.67,76.14 C52.48,78.03 42.04,78.03 38.86,76.14 C37.03,75.05 35.16,76.72 35.92,78.38 C36.67,80.01 42.36,83.8 47.29,83.8 C52.22,83.8 57.84,80.01 58.59,78.38 C59.34,76.72 57.5,75.05 55.67,76.14 Z" fill="#795548"/>
  <path id="nose_1_" d="M51.11,68.06 C51,68.02 50.9,67.99 50.79,67.98 L43.71,67.98 C43.6,67.99 43.49,68.02 43.39,68.06 C42.75,68.32 42.4,68.98 42.7,69.69 C43,70.4 44.41,72.38 47.25,72.38 C50.09,72.38 51.5,70.39 51.8,69.69 C52.1,68.98 51.75,68.32 51.11,68.06 Z" fill="#E59600"/>
  <path d="M35.74,58.81 A4.93 5.1 0 1 1 25.88,58.81 A4.93 5.1 0 1 1 35.74,58.81 Z" fill="#404040"/>
  <path d="M68.62,58.81 A4.93 5.1 0 1 1 58.76,58.81 A4.93 5.1 0 1 1 68.62,58.81 Z" fill="#404040"/>
  <path d="M23.09,50.73 C26.27,46.22 33.75,46.07 37.5,49.91 C38.15,50.58 38.84,51.44 38.35,52.41 C37.81,53.48 36.7,53.31 35.79,52.94 C33.36,51.96 30.86,51.52 28.24,52.05 C27.11,52.28 26.14,52.75 25.07,53.13 C23.63,53.62 22.16,52.12 23.09,50.73 Z" fill="#6D4C41"/>
  <path d="M69.51,53.13 C67.28,52.16 65.02,51.6 62.56,51.88 C61.44,52.01 60.34,52.3 59.3,52.71 C58.47,53.04 57.58,53.57 56.72,52.99 C54.27,51.3 58.62,48.55 59.89,48 C62.65,46.81 65.94,46.92 68.61,48.31 C69.67,48.86 70.82,49.66 71.45,50.71 C72.24,52.02 71.06,53.76 69.51,53.13 Z" fill="#6D4C41"/>
  <path id="hair" d="M85.6,42.42 C84.36,40.84 84.2,39.44 84.11,39.25 C82.75,24.09 75.59,4.18 47.48,4.03 L47.48,4.03 C47.47,4.03 47.47,4.03 47.46,4.03 C47.45,4.03 47.45,4.03 47.44,4.03 L47.44,4.03 C2.01,4.27 11.32,56.17 11.32,56.17 C11.32,56.17 16.42,65.16 16.42,64.98 C16.25,57.73 19.16,44.89 21.22,39.43 C22.26,36.67 25.12,35.07 28.02,35.6 C32.47,36.41 39.57,37.41 47.39,37.41 C47.42,37.41 47.45,37.41 47.47,37.41 C47.49,37.41 47.53,37.41 47.55,37.41 C55.38,37.41 62.47,36.41 66.92,35.6 C69.82,35.07 72.68,36.68 73.71,39.43 C75.77,44.9 78.67,57.73 78.51,64.98 C78.51,65.14 82.47,58.17 83.41,56.53 L83.47,56.57 C83.47,56.57 88.8,57.67 95.42,54.78 C102.13,51.85 103.8,46.59 103.8,46.59 C90.04,48.59 86.26,43.26 85.6,42.42 Z" fill="#543930"/>
  <path id="hairHighlights_1_" d="M85.6,42.42 C84.36,40.84 84.2,39.44 84.11,39.25 C82.75,24.09 75.59,4.18 47.48,4.03 L47.48,4.03 C47.47,4.03 47.47,4.03 47.46,4.03 C47.45,4.03 47.45,4.03 47.44,4.03 L47.44,4.03 C2.01,4.27 11.32,56.17 11.32,56.17 C11.32,56.17 16.42,65.16 16.42,64.98 C16.25,57.73 19.16,44.89 21.22,39.43 C22.26,36.67 25.12,35.07 28.02,35.6 C32.47,36.41 39.57,37.41 47.39,37.41 C47.42,37.41 47.45,37.41 47.47,37.41 C47.49,37.41 47.53,37.41 47.55,37.41 C55.38,37.41 62.47,36.41 66.92,35.6 C69.82,35.07 72.68,36.68 73.71,39.43 C75.77,44.9 78.67,57.73 78.51,64.98 C78.51,65.14 82.47,58.17 83.41,56.53 L83.47,56.57 C83.47,56.57 87.98,57.76 95.42,54.78 C101.8,52.22 103.8,46.59 103.8,46.59 C90.46,48.63 86.26,43.26 85.6,42.42 Z" fill="url(#hairHighlights_2_)"/>
  <path d="M90.88,67.95 L85.85,28.61 L92.13,23.94 C93.79,27.08 97.58,34.19 98.17,35.21 C98.33,35.48 98.39,35.78 98.37,36.09 C98.37,36.09 96.1,58.45 95.74,61.75 C95.34,65.34 94.74,66.56 93.98,67.3 C93.31,67.94 90.88,67.95 90.88,67.95 Z" fill="#82AEC0"/>
  <path d="M94.56,36.2 A2.03 2.03 0 1 1 90.5,36.2 A2.03 2.03 0 1 1 94.56,36.2 Z" fill="#B9E4EA"/>
  <path d="M75.37,13.55 C75.12,18.39 77.81,22.6 81.67,23.95 C82.38,24.2 84.13,24.99 85.23,27.36 L85.57,28.34 C85.63,28.52 85.85,28.6 86.01,28.49 L92.32,24.42 C92.44,24.34 92.49,24.2 92.44,24.06 C92.15,23.3 91.27,20.81 91.86,19.71 C92.28,18.91 93.38,16.76 93.49,14.47 C93.78,8.74 89.96,3.89 84.96,3.63 C79.96,3.37 75.66,7.82 75.37,13.55 Z M78.99,13.73 C79.17,10.29 81.74,7.63 84.74,7.78 C87.74,7.93 90.03,10.84 89.86,14.28 C89.68,17.72 87.11,20.38 84.11,20.23 C81.11,20.08 78.82,17.17 78.99,13.73 Z" fill="#DE3E31"/>
</svg>
